X: 53
T:Coleraine
% Nottingham Music Database
S:Trad, arr Phil Rowe
M:6/8
K:Am
E|"Am"EAA ABc|"E7"Bee e2d|"Am"cBA ABc|"E7"B^GE E2E|
"Am"EAA ABc|"E7"Bee e2d|"Am"cBA "E7"B^GE|"Am"A3 -A2::
B|"C"c2c cdc|"G"Bdg g2^g|"Am"aed cBA|"E7"^GBG E^FG|
"Am"A^GA "E7"BAB|"Am"cde "Dm"fed|"Am"cBA "E7"EA^G|"Am"A3 -A2:|


